X:1
T:Title
%%score ( 1 2 ) 3
L:1/8
Q:1/4=103
M:4/4
K:Bb
V:1 treble nm="Grand Piano, Soprano"
V:2 treble 
V:3 bass nm="Choir Pad, Bass"
V:1
 [DF]2 [DF]2- [DF][DF][EG][EA] | [DB][Fc] [Fd]6 | [DF]2 [EG]2 [EB]2 [Ec][EB] | [EG][EB] [DF]6 | %4
w: By~James~Holmes~Rosecrans * * * * *||||
 [DF]2 [DF]2- [DF][DF][EG][EA] | [DB][Fc] [Fd]6 | [DF]2 [EG]2 [EB]2 [EB][EA] | [EG][EA] [DB]6 | %8
w: ||||
 z2 B4 z2 | [DF][DB][DB][CA] [CA][CA] [CA]2 | z2 c4 z2 | [EG][EF][DB][DF] [DF][DF] [DF]2 | %12
w: ||||
 z2 d4 z2 | [DB][DB][Ec][EB] [EB][EG] [EB]2 | [EG]2 [DF]2 [DF][DB][EB][EA] | z2 B6- | B6 z2 |] %17
w: |||||
V:2
 x8 | x8 | x8 | x8 | x8 | x8 | x8 | x8 | [DF]2 D2 DD [DF]2 | x8 | [CF]2 E2 EE [EA]2 | x8 | %12
 [DF]2 F2 FF [DB]2 | x8 | x8 | [EG][EA] D2 EE D2- | D6 z2 |] %17
V:3
 [B,,B,]2 [B,,B,]2- [B,,B,][B,,B,][B,,B,][B,,F,] | [B,,B,][B,,B,] [B,,B,]6 | %2
 [B,,B,]2 [E,B,]2 [E,G,]2 [E,G,][E,G,] | [E,B,][G,B,] B,6 | %4
 [B,,B,]2 [B,,B,]2- [B,,B,][B,,B,][B,,B,][B,,F,] | [B,,B,][B,,B,] [B,,B,]6 | %6
 [B,,B,]2 [E,B,]2 [E,G,]2 F,F, | F,F, [B,,F,]6 | [B,,B,]2 [B,,F,]2 [B,,F,][B,,F,] [B,,B,]2 | %9
 [B,,B,][B,,F,]F,F, F,F, F,2 | [F,A,]2 [F,A,]2 [F,A,][F,A,] [F,C]2 | %11
 [F,C][F,A,][B,,F,][B,,B,] [B,,B,][B,,B,] [B,,B,]2 | [B,,B,]2 [B,,B,]2 [B,,B,][B,,B,] [B,,F,]2 | %13
 [B,,_A,][B,,A,][E,G,][E,G,] [E,G,][E,G,] [E,G,]2 | [E,B,]2 [F,B,]2 [F,B,]F,F,F, | %15
 F,F, [B,,F,]2 [B,,G,][B,,G,] [B,,F,]2- | [B,,F,]6 z2 |] %17

